X:1
%
T:Flag of Green (The)
M:2/4
L:1/8
B:Joyce -- Old Irish Folk Music and Songs (1909)
K:Dmin
D>EFG|AdcA|F>AGE|DE C2|
D>EFG|AdcA|F>AGE|DD D2||
d>dcd|edcA|Adcd|ec d2|
F/>G/A/=B/ cd|edcA|F>AGE|DD D2||

